public/assets/home_cta/laravel.svg

<svg fill="none" height="64" viewBox="0 0 74 64" width="74" xmlns="http://www.w3.org/2000/svg" xmlns:xlink="http://www.w3.org/1999/xlink"><mask id="a" height="51" maskUnits="userSpaceOnUse" width="74" x="0" y="0"><path d="m0 0h73.6658v50.0956h-73.6658z" fill="#fff"/></mask><mask id="b" height="9" maskUnits="userSpaceOnUse" width="9" x="18" y="55"><path d="m18.8174 55.9978h7.6984v7.7686h-7.6984z" fill="#fff"/></mask><mask id="c" height="9" maskUnits="userSpaceOnUse" width="9" x="32" y="55"><path d="m32.4592 55.9923h7.6861v7.7741h-7.6861z" fill="#fff"/></mask><g mask="url(#a)"><path clip-rule="evenodd" d="m54.971 16.0948c.055.0881.0839.1445.1197.1954l6.6854 9.4218c.1308.1844.1321.1858.3551.1238l8.2009-2.2312c.0592-.0165.1142-.0426.194-.0743-.0757-.1005-.1376-.1817-.2009-.2615-2.3522-2.9383-4.705-5.8761-7.0584-8.8134-.2725-.34-.1762-.2822-.5506-.1941-2.2216.5203-4.4404 1.0461-6.6606 1.5706l-1.0846.2615m-8.7363 31.4888 22.6356-7.9241-7.8898-11.1244c-.479.0757-22.3066 6.0398-22.4855 6.1472zm-11.2786-14.3562c-.0743-.1308-.1197-.2148-.1693-.296l-3.854-6.428-13.0583-21.77527c-.424-.70612-.8507-1.41223-1.2691-2.12248-.0964-.16104-.1844-.24913-.3964-.20234-.296.0647-.6015.08259-.903.12251l-5.90077.79558-5.90219.7887c-.18031.02478-.36062.05506-.58361.08947l17.52627 32.97403zm2.3028-.6277 22.2846-6.0563c-.0633-.1033-.1101-.1831-.1624-.2574l-3.2525-4.5836-3.8499-5.4301c-.0592-.0839-.1212-.1679-.1776-.256-.4322-.6703-.128-1.5141.6373-1.7343.4391-.1252.8864-.2188 1.331-.3235l8.9276-2.11c.0551-.0138.1101-.0234.1652-.0358.5093-.1198.9291.022 1.258.4349l2.2079 2.757c2.2325 2.7873 4.4651 5.5746 6.695 8.3661.1101.1348.2106.2876.2711.4487.2244.6015-.1018 1.2525-.7295 1.459-.3496.1129-.7088.1996-1.064.2973l-8.1815 2.2202-.2877.084c.0647.1005.1101.1789.161.2532l3.2402 4.5657 4.8093 6.7804c.1266.1789.234.3633.2601.5863.0688.5974-.2175 1.0558-.8038 1.2622-1.9408.6827-3.8844 1.3599-5.8265 2.0399-6.2862 2.2023-12.5738 4.4046-18.8614 6.6028-.1789.0633-.3716.1156-.5588.1239-.4474.022-.7819-.1913-1.0117-.5712-.3689-.6098-.735-1.221-1.1012-1.8321-2.4211-4.0385-4.8423-8.0783-7.2648-12.1154-.212-.3524-.1322-.3359-.5603-.2203-5.1754 1.4081-10.3508 2.8162-15.5262 4.2271-.2296.0745-.4752.085-.7103.0303-.1556-.0403-.3007-.1133-.4258-.2142s-.2273-.2273-.2995-.3708c-.1914-.351-.3786-.7048-.5658-1.0599l-10.74585-20.2144-7.273121-13.68184c-.052304-.0991-.107362-.19821-.154161-.29869-.320711-.69235.067445-1.47279.81623-1.60768.550572-.0991 1.109412-.15967 1.665492-.23399l3.78522-.50929 3.40119-.455601 3.7136-.498272c1.1191-.151408 2.2368-.30557 3.3558-.4542254.5547-.0729514.9566.1569144 1.2416.6331634.9249 1.555375 1.8582 3.106625 2.79 4.657875l16.2104 27.03335z" fill="#fff" fill-rule="evenodd"/></g><path clip-rule="evenodd" d="m56.1024 59.1058c-.1693-1.3324-1.4177-2.1899-2.7391-2.1844-.3498-.0063-.6973.0577-1.022.1882-.3246.1305-.6197.3249-.8678.5716-.3965.3895-.6318.8685-.7736 1.4246zm-5.5222.8809c.0275.2367.0385.435.0757.629.2257 1.1824 1.1465 2.1019 2.3096 2.2299 1.1425.1239 2.1184-.234 2.8245-1.1838.128-.172.245-.3523.3799-.545.267.1404.5189.2753.7777.4101-.0276.0744-.0413.1281-.0688.1749-.6745 1.225-1.6779 1.9476-3.097 2.0467-.6883.0482-1.36-.0234-1.9959-.3028-.8506-.3703-1.4218-1.0254-1.8141-1.8417-.8562-1.7811-.245-3.9806 1.3998-5.0515.7061-.4598 1.4948-.596 2.3207-.5437.6332.0413 1.2305.2065 1.7646.5616.9277.6166 1.4948 1.4728 1.682 2.5753.0427.2601.0798.5203.044.8052-.1156.0055-.2257.0138-.3358.0138-1.9601.0027-3.9229.0014-5.8829.0027-.1101 0-.2202.011-.384.0193z" fill="#fff" fill-rule="evenodd"/><g mask="url(#b)"><path clip-rule="evenodd" d="m25.6266 59.915c-.0234-.2064-.0317-.4143-.0688-.6194-.0769-.44-.2553-.8561-.5211-1.2151-.2659-.3589-.6118-.6509-1.0103-.8527-.3986-.2018-.8387-.3079-1.2854-.3097s-.8876.1006-1.2878.2991c-1.7302.8328-2.1927 3.086-.9731 4.5781.5065.6194 1.1576.9855 1.9518 1.0598 1.6035.1514 3.2016-1.0144 3.1933-2.9401m-.0619 3.6421v-1.1645c-.1239.0166-.1625.1033-.2175.1625-.5121.5299-1.1053.9249-1.8293 1.097-2.4418.585-4.3441-1.1865-4.6386-3.0667-.1638-1.0626-.0055-2.0606.6387-2.9484.7831-1.0736 1.8306-1.6517 3.1754-1.6379 1.0516.011 1.9256.4239 2.6139 1.2209l.1954.2271.0496-.0193.0137-1.2209h.9264c.0082.0964.022.1831.022.2684v6.823c0 .0482.0124.1033-.0069.1432-.0248.0495-.0715.1225-.1128.1239-.2698.0165-.541.0275-.8287-.0083" fill="#fff" fill-rule="evenodd"/></g><g mask="url(#c)"><path clip-rule="evenodd" d="m39.2684 59.9054c-.0206-.1982-.0316-.3991-.066-.596-.0755-.4421-.2535-.8604-.5196-1.2214s-.6131-.6548-1.013-.8577c-.4-.2029-.8419-.3094-1.2905-.311-.4485-.0015-.8911.1019-1.2925.3021-.6875.3388-1.2167.9311-1.4763 1.6523-.2595.7211-.2292 1.5149.0847 2.2141.4625 1.0282 1.2567 1.66 2.3895 1.7646 1.7729.1638 3.181-1.1645 3.1837-2.947zm-.0646-2.4817v-1.2182c.3152-.0275.6056-.0247.8891-.0041.0633.1996.0757 7.0763.0138 7.3585-.2835.0303-.5754.0275-.8974-.0028v-1.1521l-.0551-.0234-.1734.179c-.4859.5093-1.0516.8947-1.7357 1.0722-2.4542.6373-4.3826-1.1025-4.7143-2.9882-.3675-2.0798.724-3.5471 2.0288-4.2395 1.2664-.6703 3.2223-.6207 4.4253.8603.0495.0606.106.1156.1583.1734z" fill="#fff" fill-rule="evenodd"/></g><path clip-rule="evenodd" d="m41.5768 56.1905h.9044c.1115 0 .1472.0826.1844.1638l.4735 1.0241 1.788 3.8843c.033.0715.0688.1417.1239.2519.0495-.0868.0867-.1418.1142-.201l2.2078-4.8533c.0276-.0578.0468-.1225.084-.1721.0303-.0413.0826-.0908.1266-.0922.2932-.0083.5864-.0041.9223-.0041-.0482.1266-.0771.2147-.1157.2986l-2.4982 5.4604-.6401 1.3971c-.0234.0509-.044.1046-.0743.1514-.0661.095-.172.0991-.2381.0055-.0358-.0509-.0592-.1129-.0853-.1707l-3.1659-6.8726c-.033-.0715-.0591-.1459-.1101-.2711m-9.5814.0771-.4735.7708c-.0468-.0042-.0784 0-.1074-.0083-.6194-.1707-1.1121-.0124-1.5113.4928-.2917.3852-.4786.8396-.5423 1.3186-.1101.6827-.1074 1.3723-.1087 2.0605v2.3304l-.0014.1927c-.0014.0963-.0496.1486-.1473.1486h-.6965c-.0963 0-.1473-.0509-.1473-.1486l-.0027-.1927v-6.7033c0-.1005.011-.2023.0165-.3221h.9718l.0082.4625v.468c.117-.0069.1418-.095.1859-.1514.2243-.2863.4845-.5355.7969-.7227.5231-.3152 1.0681-.362 1.6242-.0826.0358.0179.0661.0427.1349.0868m-14.7967 7.291c-.3276.033-.625.0192-.9168.011-.0578-.1982-.0784-9.8251-.022-10.2063.2891-.0344.5891-.0152.9154-.011.0082.1238.022.2312.022.3386v9.8677zm42.5719-10.1981v10.1967c-.3116.033-.6259.0321-.9373-.0028v-10.1925c.3111-.0275.6097-.022.936-.0014" fill="#fff" fill-rule="evenodd"/></svg>

<svg width="74" height="64" viewBox="0 0 74 64" fill="none" xmlns="http://www.w3.org/2000/svg">
<mask id="mask0_306_20" style="mask-type:alpha" maskUnits="userSpaceOnUse" x="0" y="0" width="74" height="51">
<path d="M0 0H73.6658V50.0956H0V0Z" fill="white"/>
</mask>
<g mask="url(#mask0_306_20)">
<path fill-rule="evenodd" clip-rule="evenodd" d="M54.971 16.0948C55.026 16.1829 55.0549 16.2393 55.0907 16.2902L61.7761 25.712C61.9069 25.8964 61.9082 25.8978 62.1312 25.8358L70.3321 23.6046C70.3913 23.5881 70.4463 23.562 70.5261 23.5303C70.4504 23.4298 70.3885 23.3486 70.3252 23.2688C67.973 20.3305 65.6202 17.3927 63.2668 14.4554C62.9943 14.1154 63.0906 14.1732 62.7162 14.2613C60.4946 14.7816 58.2758 15.3074 56.0556 15.8319L54.971 16.0934M46.2347 47.5822L68.8703 39.6581L60.9805 28.5337C60.5015 28.6094 38.6739 34.5735 38.495 34.6809L46.2347 47.5822ZM34.9561 33.226C34.8818 33.0952 34.8364 33.0112 34.7868 32.93L30.9328 26.502L17.8745 4.72673C17.4505 4.02061 17.0238 3.3145 16.6054 2.60425C16.509 2.44321 16.421 2.35512 16.209 2.40191C15.913 2.46661 15.6075 2.4845 15.306 2.52442L9.40523 3.32L3.50304 4.1087C3.32273 4.13348 3.14242 4.16376 2.91943 4.19817L20.4457 37.1722L34.9561 33.226M37.2589 32.5983L59.5435 26.542C59.4802 26.4387 59.4334 26.3589 59.3811 26.2846L56.1286 21.701L52.2787 16.2709C52.2195 16.187 52.1575 16.103 52.1011 16.0149C51.6689 15.3446 51.9731 14.5008 52.7384 14.2806C53.1775 14.1554 53.6248 14.0618 54.0694 13.9571L62.997 11.8471C63.0521 11.8333 63.1071 11.8237 63.1622 11.8113C63.6715 11.6915 64.0913 11.8333 64.4202 12.2462L66.6281 15.0032C68.8606 17.7905 71.0932 20.5778 73.3231 23.3693C73.4332 23.5041 73.5337 23.6569 73.5942 23.818C73.8186 24.4195 73.4924 25.0705 72.8647 25.277C72.5151 25.3899 72.1559 25.4766 71.8007 25.5743L63.6192 27.7945L63.3315 27.8785C63.3962 27.979 63.4416 28.0574 63.4925 28.1317L66.7327 32.6974L71.542 39.4778C71.6686 39.6567 71.776 39.8411 71.8021 40.0641C71.8709 40.6615 71.5846 41.1199 70.9983 41.3263C69.0575 42.009 67.1139 42.6862 65.1718 43.3662C58.8856 45.5685 52.598 47.7708 46.3104 49.969C46.1315 50.0323 45.9388 50.0846 45.7516 50.0929C45.3042 50.1149 44.9697 49.9016 44.7399 49.5217C44.371 48.9119 44.0049 48.3007 43.6387 47.6896C41.2176 43.6511 38.7964 39.6113 36.3739 35.5742C36.1619 35.2218 36.2417 35.2383 35.8136 35.3539C30.6382 36.762 25.4628 38.1701 20.2874 39.581C20.0578 39.6555 19.8122 39.666 19.5771 39.6113C19.4215 39.571 19.2764 39.498 19.1513 39.3971C19.0262 39.2962 18.924 39.1698 18.8518 39.0263C18.6604 38.6753 18.4732 38.3215 18.286 37.9664L7.54015 17.752L0.267029 4.07016C0.214725 3.97106 0.159667 3.87195 0.112868 3.77147C-0.207843 3.07912 0.180313 2.29868 0.929098 2.16379C1.47967 2.06469 2.03851 2.00412 2.59459 1.9298L6.37981 1.42051L9.781 0.964909L13.4946 0.466637C14.6137 0.315229 15.7314 0.161067 16.8504 0.0124116C17.4051 -0.0605398 17.807 0.169326 18.092 0.645575C19.0169 2.20095 19.9502 3.7522 20.882 5.30345L37.0924 32.3368L37.2589 32.5983" fill="white"/>
</g>
<path fill-rule="evenodd" clip-rule="evenodd" d="M56.1024 59.1058C55.9331 57.7734 54.6847 56.9159 53.3633 56.9214C53.0135 56.9151 52.666 56.9791 52.3413 57.1096C52.0167 57.2401 51.7216 57.4345 51.4735 57.6812C51.077 58.0707 50.8417 58.5497 50.6999 59.1058H56.1024V59.1058ZM50.5802 59.9867C50.6077 60.2234 50.6187 60.4217 50.6559 60.6157C50.8816 61.7981 51.8024 62.7176 52.9655 62.8456C54.108 62.9695 55.0839 62.6116 55.79 61.6618C55.918 61.4898 56.035 61.3095 56.1699 61.1168C56.4369 61.2572 56.6888 61.3921 56.9476 61.5269C56.92 61.6013 56.9063 61.655 56.8788 61.7018C56.2043 62.9268 55.2009 63.6494 53.7818 63.7485C53.0935 63.7967 52.4218 63.7251 51.7859 63.4457C50.9353 63.0754 50.3641 62.4203 49.9718 61.604C49.1156 59.8229 49.7268 57.6234 51.3716 56.5525C52.0777 56.0927 52.8664 55.9565 53.6923 56.0088C54.3255 56.0501 54.9228 56.2153 55.4569 56.5704C56.3846 57.187 56.9517 58.0432 57.1389 59.1457C57.1816 59.4058 57.2187 59.666 57.1829 59.9509C57.0673 59.9564 56.9572 59.9647 56.8471 59.9647C54.887 59.9674 52.9242 59.9661 50.9642 59.9674C50.8541 59.9674 50.744 59.9784 50.5802 59.9867V59.9867Z" fill="white"/>
<mask id="mask1_306_20" style="mask-type:alpha" maskUnits="userSpaceOnUse" x="18" y="55" width="9" height="9">
<path d="M18.8174 55.9978H26.5158V63.7664H18.8174V55.9978Z" fill="white"/>
</mask>
<g mask="url(#mask1_306_20)">
<path fill-rule="evenodd" clip-rule="evenodd" d="M25.6266 59.915C25.6032 59.7086 25.5949 59.5007 25.5578 59.2956C25.4809 58.8556 25.3025 58.4395 25.0367 58.0805C24.7708 57.7216 24.4249 57.4296 24.0264 57.2278C23.6278 57.026 23.1877 56.9199 22.741 56.9181C22.2943 56.9163 21.8534 57.0187 21.4532 57.2172C19.723 58.05 19.2605 60.3032 20.4801 61.7953C20.9866 62.4147 21.6377 62.7808 22.4319 62.8551C24.0354 63.0065 25.6335 61.8407 25.6252 59.915M25.5633 63.5571V62.3926C25.4394 62.4092 25.4008 62.4959 25.3458 62.5551C24.8337 63.085 24.2405 63.48 23.5165 63.6521C21.0747 64.2371 19.1724 62.4656 18.8779 60.5854C18.7141 59.5228 18.8724 58.5248 19.5166 57.637C20.2997 56.5634 21.3472 55.9853 22.692 55.9991C23.7436 56.0101 24.6176 56.423 25.3059 57.22L25.5013 57.4471L25.5509 57.4278L25.5646 56.2069H26.491C26.4992 56.3033 26.513 56.39 26.513 56.4753V63.2983C26.513 63.3465 26.5254 63.4016 26.5061 63.4415C26.4813 63.491 26.4346 63.564 26.3933 63.5654C26.1235 63.5819 25.8523 63.5929 25.5646 63.5571" fill="white"/>
</g>
<mask id="mask2_306_20" style="mask-type:alpha" maskUnits="userSpaceOnUse" x="32" y="55" width="9" height="9">
<path d="M32.4592 55.9923H40.1453V63.7664H32.4592V55.9923Z" fill="white"/>
</mask>
<g mask="url(#mask2_306_20)">
<path fill-rule="evenodd" clip-rule="evenodd" d="M39.2684 59.9054C39.2478 59.7072 39.2368 59.5063 39.2024 59.3094C39.1269 58.8673 38.9489 58.449 38.6828 58.088C38.4167 57.727 38.0697 57.4332 37.6698 57.2303C37.2698 57.0274 36.8279 56.9209 36.3793 56.9193C35.9308 56.9178 35.4882 57.0212 35.0868 57.2214C34.3993 57.5602 33.8701 58.1525 33.6105 58.8737C33.351 59.5948 33.3813 60.3886 33.6952 61.0878C34.1577 62.116 34.9519 62.7478 36.0847 62.8524C37.8576 63.0162 39.2657 61.6879 39.2684 59.9054ZM39.2038 57.4237V56.2055C39.519 56.178 39.8094 56.1808 40.0929 56.2014C40.1562 56.401 40.1686 63.2777 40.1067 63.5599C39.8232 63.5902 39.5313 63.5874 39.2093 63.5571V62.405L39.1542 62.3816L38.9808 62.5606C38.4949 63.0699 37.9292 63.4553 37.2451 63.6328C34.7909 64.2701 32.8625 62.5303 32.5308 60.6446C32.1633 58.5648 33.2548 57.0975 34.5596 56.4051C35.826 55.7348 37.7819 55.7844 38.9849 57.2654C39.0344 57.326 39.0909 57.381 39.1432 57.4388L39.2038 57.4237Z" fill="white"/>
</g>
<path fill-rule="evenodd" clip-rule="evenodd" d="M41.5768 56.1905H42.4812C42.5927 56.1905 42.6284 56.2731 42.6656 56.3543L43.1391 57.3784L44.9271 61.2627C44.9601 61.3342 44.9959 61.4044 45.051 61.5146C45.1005 61.4278 45.1377 61.3728 45.1652 61.3136L47.373 56.4603C47.4006 56.4025 47.4198 56.3378 47.457 56.2882C47.4873 56.2469 47.5396 56.1974 47.5836 56.196C47.8768 56.1877 48.17 56.1919 48.5059 56.1919C48.4577 56.3185 48.4288 56.4066 48.3902 56.4905L45.892 61.9509L45.2519 63.348C45.2285 63.3989 45.2079 63.4526 45.1776 63.4994C45.1115 63.5944 45.0056 63.5985 44.9395 63.5049C44.9037 63.454 44.8803 63.392 44.8542 63.3342L41.6883 56.4616C41.6553 56.3901 41.6292 56.3157 41.5782 56.1905M31.9968 56.2676L31.5233 57.0384C31.4765 57.0342 31.4449 57.0384 31.4159 57.0301C30.7965 56.8594 30.3038 57.0177 29.9046 57.5229C29.6129 57.9081 29.426 58.3625 29.3623 58.8415C29.2522 59.5242 29.2549 60.2138 29.2536 60.902V63.2324L29.2522 63.4251C29.2508 63.5214 29.2026 63.5737 29.1049 63.5737H28.4084C28.3121 63.5737 28.2611 63.5228 28.2611 63.4251L28.2584 63.2324V56.5291C28.2584 56.4286 28.2694 56.3268 28.2749 56.207H29.2467L29.2549 56.6695V57.1375C29.3719 57.1306 29.3967 57.0425 29.4408 56.9861C29.6651 56.6998 29.9253 56.4506 30.2377 56.2634C30.7608 55.9482 31.3058 55.9014 31.8619 56.1808C31.8977 56.1987 31.928 56.2235 31.9968 56.2676M17.2001 63.5586C16.8725 63.5916 16.5751 63.5778 16.2833 63.5696C16.2255 63.3714 16.2049 53.7445 16.2613 53.3633C16.5504 53.3289 16.8504 53.3481 17.1767 53.3523C17.1849 53.4761 17.1987 53.5835 17.1987 53.6909V63.5586H17.2001ZM59.772 53.3605V63.5572C59.4604 63.5902 59.1461 63.5893 58.8347 63.5544V53.3619C59.1458 53.3344 59.4444 53.3399 59.7707 53.3605" fill="white"/>
</svg>
